svg/send.svg

<svg xmlns:dc="http://purl.org/dc/elements/1.1/" xmlns:cc="http://creativecommons.org/ns#" xmlns:rdf="http://www.w3.org/1999/02/22-rdf-syntax-ns#" xmlns:svg="http://www.w3.org/2000/svg" xmlns="http://www.w3.org/2000/svg" version="1.1" id="svg898" viewBox="0 4.57 64 54.86">
  <defs id="defs892"/>
  <metadata id="metadata895">
    <rdf:RDF>
      <cc:Work rdf:about="">
        <dc:format>image/svg+xml</dc:format>
        <dc:type rdf:resource="http://purl.org/dc/dcmitype/StillImage"/>
        <dc:title/>
      </cc:Work>
    </rdf:RDF>
  </metadata>
  <g id="layer1">
    <path id="cloud-upload" d="m 63.999948,34.285731 a 17.033293,17.033293 0 0 1 -4.406235,11.428568 14.856655,14.856655 0 0 1 -10.55805,4.571428 h -2.178561 v -6.857139 h 2.178561 A 8.0044292,8.0044292 0 0 0 54.504416,41.118327 10.183788,10.183788 0 0 0 57.14281,34.285731 11.442004,11.442004 0 0 0 45.714251,22.857173 c -0.37683,0 -2.312648,0.241803 -3.490288,0.393502 A 1.1359993,1.1359993 0 0 1 41.00286,22.487082 L 40.537483,21.129528 A 14.102711,14.102711 0 0 0 28.821257,11.497829 13.665957,13.665957 0 0 0 14.091416,28.276812 l 0.488099,2.087681 a 1.1428564,1.1428564 0 0 1 -0.782255,1.354176 l -2.053987,0.62062 a 6.7940986,6.7940986 0 0 0 -4.8860757,6.517846 4.6043628,4.6043628 0 0 0 0.9464197,2.808045 5.5388308,5.5388308 0 0 0 4.089282,1.763384 h 5.250006 v 6.857137 H 11.892899 A 12.235604,12.235604 0 0 1 2.2121047,45.633903 11.506439,11.506439 0 0 1 5.8514086e-5,38.857135 13.5727,13.5727 0 0 1 6.9442617,26.97321 C 6.8863778,26.359414 6.8571876,25.747771 6.8571876,25.142857 A 20.563484,20.563484 0 0 1 45.843766,16.000009 18.306983,18.306983 0 0 1 64,34.285707 Z M 32.923239,32.122512 a 1.1428564,1.1428564 0 0 0 -1.846543,0 l -8.591651,11.775239 a 1.1428564,1.1428564 0 0 0 0.923268,1.816548 h 5.163091 v 12.571418 a 1.1428564,1.1428564 0 0 0 1.14285,1.142858 h 4.571428 a 1.1428564,1.1428564 0 0 0 1.142859,-1.142858 V 45.714299 h 5.163084 a 1.1428564,1.1428564 0 0 0 0.923265,-1.816548 z" style="stroke-width:2.28572;fill:#45a1ff;fill-opacity:1"/>
  </g>
</svg>

<svg xmlns="http://www.w3.org/2000/svg" viewBox="0 4.57 64 54.86"><path d="M64 34.286a17.03 17.03 0 0 1-4.406 11.428 14.86 14.86 0 0 1-10.558 4.572h-2.179v-6.857h2.179a8 8 0 0 0 5.468-2.31 10.18 10.18 0 0 0 2.639-6.833 11.44 11.44 0 0 0-11.429-11.429c-.377 0-2.312.242-3.49.394a1.136 1.136 0 0 1-1.221-.764l-.466-1.357a14.1 14.1 0 0 0-11.716-9.632 13.666 13.666 0 0 0-14.73 16.779l.489 2.087a1.143 1.143 0 0 1-.783 1.355l-2.054.62a6.79 6.79 0 0 0-4.886 6.518 4.6 4.6 0 0 0 .947 2.808 5.54 5.54 0 0 0 4.089 1.764h5.25v6.857h-5.25a12.24 12.24 0 0 1-9.68-4.652A11.5 11.5 0 0 1 0 38.857a13.57 13.57 0 0 1 6.944-11.884 20 20 0 0 1-.087-1.83A20.563 20.563 0 0 1 45.844 16 18.307 18.307 0 0 1 64 34.286m-31.077-2.163a1.143 1.143 0 0 0-1.846 0l-8.592 11.775a1.143 1.143 0 0 0 .923 1.816h5.163v12.572a1.143 1.143 0 0 0 1.143 1.143h4.572a1.143 1.143 0 0 0 1.143-1.143V45.714h5.163a1.143 1.143 0 0 0 .923-1.816z" style="stroke-width:2.28572;fill:#45a1ff;fill-opacity:1"/></svg>
